X:1
T:Title
%%score { ( 1 3 4 ) | ( 2 5 ) }
L:1/8
M:3/4
K:Bb
V:1 treble nm="Grand Piano"
V:3 treble 
V:4 treble 
V:2 bass 
V:5 bass 
V:1
 z2 z2[Q:1/4=94] [B,D][CE] | [_D=E]3 [=DF] [_EG][DF] | [DB]4 [B,FB][B,FA] | %3
 [B,EG]3 [B,GB] [B,FA][B,EG] |[M:2/4] [B,DF]4 |[M:1/4] [F,B,D][B,DF] |[M:3/4] [DB]3 [Fd] [Fc][FB] | %7
 [EG]4 [GB][Gc] | d3 B Ac |[M:2/4] [B,DB]4 |[M:1/4] de |[M:3/4] d4 z2 | [EG]2 [DF]2 z2 | %13
 CC CB c_d | [Fd]4 z2 | d4 z2 | [DB]2 [DF]2 z2 |[M:7/8] B,B,B, [Ge]e3/2A3/2 |[M:2/4] [DB]4 |] %19
V:2
 z2 z2 [B,,F,][B,,F,] | [B,,G,]3 [B,,B,] [B,,B,][B,,B,] | [B,,F,]4 D,D, | E,3 E, E,E, | %4
[M:2/4] B,,4 |[M:1/4] B,,B,, |[M:3/4] [B,,F,]3 [B,,B,] [C,A,][D,B,] | [E,B,]4 [E,B,][E,B,] | %8
 [F,B,F]3 [F,DF] [F,CF][F,A,E] |[M:2/4] B,,4 |[M:1/4][K:treble] FG | %11
[M:3/4] F-[F,F-] FE[K:bass] EE | B,,B,, B,,B,, DE | F,F, F,D E=E | [B,,B,]B,, B,,2[K:treble] FG | %15
 F-[F,F-] FE[K:bass] EE | B,,B,, B,,B,, DD |[M:7/8] E,E,E, [E,B,][F,A,F]3/2[F,E]3/2 | %18
[M:2/4] [B,,F,]4 |] %19
V:3
 x6 | x6 | x6 | x6 |[M:2/4] x4 |[M:1/4] x2 |[M:3/4] x6 | x6 | x6 |[M:2/4] x4 |[M:1/4] x2 | %11
[M:3/4] z A, z c GA | B,B, B,B, Bc | [EA]4 z2 | z B, B,2 de | z A, z c GA | B,B, B,B, BF | %17
[M:7/8] [EG]3 z z z2 |[M:2/4] x4 |] %19
V:4
 x6 | x6 | x6 | x6 |[M:2/4] x4 |[M:1/4] x2 |[M:3/4] x6 | x6 | x6 |[M:2/4] x4 |[M:1/4] x2 | %11
[M:3/4] z2 A,2 z2 | x6 | x6 | x6 | z2 A,2 z2 | x6 |[M:7/8] x7 |[M:2/4] x4 |] %19
V:5
 x6 | x6 | x6 | x6 |[M:2/4] x4 |[M:1/4] x2 |[M:3/4] x6 | x6 | x6 |[M:2/4] x4 | %10
[M:1/4][K:treble] x2 |[M:3/4] .[F,A,]2 F,2[K:bass] [F,C]2 | x6 | x6 | x4[K:treble] x2 | %15
 .[F,A,]2 F,2[K:bass] [F,C]2 | x6 |[M:7/8] x7 |[M:2/4] x4 |] %19

